src/assets/filled/ShopRemove.svg

<svg width="24" height="24" viewBox="0 0 24 24"  xmlns="http://www.w3.org/2000/svg">
<path d="M7.79999 22.1502C5.14999 22.1502 2.98999 20.0002 2.98999 17.3402V14.5002C2.98999 13.8302 3.64999 13.3802 4.27999 13.6002C4.53999 13.6902 4.79999 13.7502 5.06999 13.7902C5.18999 13.8102 5.30999 13.8302 5.42999 13.8302C5.57999 13.8502 5.73999 13.8602 5.88999 13.8602C6.99999 13.8602 8.09999 13.4502 8.96999 12.7402C9.79999 13.4502 10.87 13.8602 12.01 13.8602C13.15 13.8602 14.21 13.4702 15.04 12.7502C15.9 13.4502 16.98 13.8602 18.08 13.8602C18.25 13.8602 18.43 13.8502 18.59 13.8302C18.71 13.8202 18.81 13.8102 18.92 13.7902C19.22 13.7502 19.49 13.6702 19.76 13.5802C20.38 13.3702 21.03 13.8302 21.03 14.4802V17.3402C21.03 19.9902 18.88 22.1502 16.22 22.1502H7.79999Z" />
<path d="M21.9801 8.58961L21.7001 5.92961C21.3001 3.02961 19.9801 1.84961 17.1701 1.84961H6.8201C4.0001 1.84961 2.6901 3.02961 2.2801 5.95961L2.0201 8.59961C1.9201 9.62961 2.2001 10.6296 2.8101 11.4096C3.5401 12.3596 4.6601 12.8996 5.9101 12.8996C7.1201 12.8996 8.2801 12.2896 9.0201 11.3196C9.6701 12.2896 10.7801 12.8996 12.0201 12.8996C13.2601 12.8996 14.3501 12.3196 15.0101 11.3596C15.7501 12.3096 16.9001 12.8996 18.0901 12.8996C19.3701 12.8996 20.5201 12.3296 21.2401 11.3296C21.8201 10.5596 22.0801 9.58961 21.9801 8.58961ZM13.5001 7.72961H10.5001C10.0901 7.72961 9.7501 7.39961 9.7501 6.97961C9.7501 6.56961 10.0901 6.22961 10.5001 6.22961H13.5001C13.9101 6.22961 14.2501 6.56961 14.2501 6.97961C14.2501 7.39961 13.9101 7.72961 13.5001 7.72961Z" />
</svg>

<?xml version="1.0" encoding="UTF-8"?>
<svg width="24" height="24" viewBox="0 0 24 24" xmlns="http://www.w3.org/2000/svg">
 <path d="m7.8 22.15c-2.65 0-4.81-2.15-4.81-4.81v-2.84c0-0.67 0.66-1.12 1.29-0.9 0.26 0.09 0.52 0.15 0.79 0.19 0.12 0.02 0.24 0.04 0.36 0.04 0.15 0.02 0.31 0.03 0.46 0.03 1.11 0 2.21-0.41 3.08-1.12 0.83 0.71 1.9 1.12 3.04 1.12s2.2-0.39 3.03-1.11c0.86 0.7 1.94 1.11 3.04 1.11 0.17 0 0.35-0.01 0.51-0.03 0.12-0.01 0.22-0.02 0.33-0.04 0.3-0.04 0.57-0.12 0.84-0.21 0.62-0.21 1.27 0.25 1.27 0.9v2.86c0 2.65-2.15 4.81-4.81 4.81h-8.42z"/>
 <path d="m21.98 8.5896-0.28-2.66c-0.4-2.9-1.72-4.08-4.53-4.08h-10.35c-2.82 0-4.13 1.18-4.54 4.11l-0.26 2.64c-0.1 1.03 0.18 2.03 0.79 2.81 0.73 0.95 1.85 1.49 3.1 1.49 1.21 0 2.37-0.61 3.11-1.58 0.65 0.97 1.76 1.58 3 1.58s2.33-0.58 2.99-1.54c0.74 0.95 1.89 1.54 3.08 1.54 1.28 0 2.43-0.57 3.15-1.57 0.58-0.77 0.84-1.74 0.74-2.74zm-8.48-0.86h-3c-0.41 0-0.75-0.33-0.75-0.75 0-0.41 0.34-0.75 0.75-0.75h3c0.41 0 0.75 0.34 0.75 0.75 0 0.42-0.34 0.75-0.75 0.75z"/>
</svg>
